X: 32750
T: Polska Efter Erlandsson
R: waltz
M: 3/4
K: Dminor
AB/^c/|dD DD Dg|f2 ed/e/ A2|f/e/f/g/ af ed|d^c/d/ e>d cA|
dD DD Dg|f2 ed/e/ A2|f/e/f/g/ af ed|^c/d/e/c/ d2:|
|:df/g/|a2 fg/a/ fg/a/|g>e c/e/g/e/ c/e/g/e/|f/e/f/g/ af ed|d^c/d/ e>d cA|
a2 fg/a/ fg/a/|g>e c/e/g/e/ c/e/g/e/|f/e/f/g/ af ed|^c/d/e/c/ d2:|

